build/images/socials/vk.svg

<svg width="19" height="12" viewBox="0 0 19 12" fill="none" xmlns="http://www.w3.org/2000/svg">
<path d="M18.8993 10.6C18.8763 10.5478 18.8548 10.5045 18.8349 10.4698C18.5053 9.84485 17.8753 9.07776 16.9454 8.16832L16.9258 8.14749L16.9159 8.13728L16.906 8.12681H16.896C16.474 7.70333 16.2067 7.41859 16.0948 7.27281C15.8901 6.99511 15.8442 6.71401 15.9561 6.4292C16.0352 6.21401 16.3322 5.75956 16.8464 5.06523C17.1169 4.69726 17.3312 4.40235 17.4894 4.18016C18.6304 2.58339 19.1251 1.56303 18.9733 1.11869L18.9144 1.01485C18.8748 0.952337 18.7726 0.895148 18.6079 0.842992C18.4428 0.790946 18.2318 0.782338 17.9746 0.817024L15.1256 0.83774C15.0794 0.820525 15.0135 0.82213 14.9277 0.842992C14.8419 0.863854 14.799 0.874322 14.799 0.874322L14.7494 0.9004L14.7101 0.931729C14.6771 0.952446 14.6408 0.988882 14.6012 1.04097C14.5618 1.09287 14.5289 1.15377 14.5025 1.22318C14.1924 2.06318 13.8397 2.84417 13.4439 3.5661C13.1999 3.99659 12.9758 4.36967 12.7711 4.68555C12.5667 5.00133 12.3952 5.23399 12.2568 5.38313C12.1182 5.53241 11.9932 5.652 11.8808 5.74235C11.7687 5.83273 11.6831 5.87091 11.6238 5.85694C11.5643 5.84297 11.5084 5.82911 11.4554 5.81526C11.3631 5.75274 11.2889 5.66772 11.233 5.56013C11.1768 5.45254 11.1389 5.31711 11.1191 5.15397C11.0995 4.99072 11.0878 4.8503 11.0845 4.73224C11.0814 4.61432 11.0828 4.44754 11.0895 4.23235C11.0964 4.01705 11.0995 3.87138 11.0995 3.79501C11.0995 3.53116 11.1044 3.24482 11.1142 2.93589C11.1241 2.62697 11.1322 2.38221 11.139 2.20189C11.1457 2.02138 11.1488 1.83041 11.1488 1.62908C11.1488 1.42776 11.1372 1.26987 11.1142 1.15527C11.0914 1.04082 11.0565 0.929724 11.0106 0.82202C10.9643 0.714426 10.8966 0.631196 10.8078 0.572111C10.7187 0.513098 10.6081 0.466267 10.4764 0.431472C10.1268 0.348206 9.68167 0.303162 9.14076 0.296159C7.91416 0.2823 7.126 0.365676 6.77646 0.546178C6.63797 0.622442 6.51264 0.726644 6.40059 0.858456C6.28185 1.01124 6.26528 1.09462 6.35101 1.10833C6.74677 1.17073 7.02694 1.32002 7.19183 1.55603L7.25125 1.68109C7.29747 1.77133 7.34363 1.93108 7.38981 2.16012C7.43593 2.38917 7.4657 2.64255 7.47879 2.9201C7.51171 3.42696 7.51171 3.86084 7.47879 4.22177C7.44577 4.58285 7.41459 4.86394 7.38482 5.06527C7.35506 5.2666 7.31057 5.42974 7.25125 5.55466C7.19183 5.67961 7.1523 5.75599 7.13248 5.78371C7.11269 5.81143 7.0962 5.8289 7.0831 5.83575C6.99738 5.87033 6.90823 5.88795 6.81596 5.88795C6.72355 5.88795 6.6115 5.83929 6.47962 5.74205C6.34778 5.64482 6.21095 5.51126 6.06914 5.34115C5.92732 5.171 5.76738 4.93324 5.58925 4.62782C5.41126 4.3224 5.22658 3.96143 5.03532 3.54491L4.87708 3.24285C4.77815 3.04852 4.64302 2.76557 4.47154 2.39424C4.29996 2.02277 4.14831 1.66344 4.01647 1.31633C3.96377 1.17055 3.88459 1.05957 3.77909 0.983193L3.72957 0.951862C3.69666 0.924143 3.64382 0.89471 3.57133 0.863343C3.49874 0.832014 3.423 0.809546 3.34379 0.795723L0.633243 0.81644C0.35626 0.81644 0.168324 0.882492 0.0693671 1.01441L0.0297634 1.07682C0.00997889 1.11158 0 1.16709 0 1.2435C0 1.31987 0.0197845 1.4136 0.0593882 1.52459C0.455079 2.50351 0.885383 3.4476 1.3503 4.35701C1.81522 5.26642 2.21923 5.99897 2.56208 6.55401C2.905 7.10945 3.25454 7.63367 3.61069 8.12641C3.96685 8.61934 4.2026 8.93523 4.31795 9.074C4.43343 9.21304 4.52414 9.31698 4.59008 9.38639L4.83744 9.63626C4.99571 9.80291 5.22814 10.0025 5.53482 10.235C5.84156 10.4677 6.18116 10.6967 6.55377 10.9225C6.92645 11.1479 7.36002 11.3319 7.8547 11.4742C8.34931 11.6166 8.83072 11.6738 9.299 11.6462H10.4367C10.6674 11.6252 10.8422 11.5488 10.961 11.417L11.0004 11.3648C11.0268 11.3234 11.0516 11.259 11.0745 11.1724C11.0976 11.0856 11.1091 10.9901 11.1091 10.8861C11.1024 10.5876 11.124 10.3186 11.1733 10.0791C11.2226 9.83974 11.2788 9.65924 11.3417 9.53768C11.4045 9.41622 11.4754 9.31374 11.5543 9.23065C11.6333 9.14739 11.6897 9.09694 11.7227 9.07958C11.7556 9.06211 11.7818 9.05026 11.8016 9.04315C11.9599 8.98764 12.1461 9.0414 12.3607 9.20468C12.5751 9.36783 12.7761 9.56926 12.9642 9.80867C13.1522 10.0483 13.378 10.3171 13.6418 10.6156C13.9057 10.9142 14.1364 11.1361 14.3342 11.2821L14.532 11.407C14.6641 11.4904 14.8356 11.5668 15.0466 11.6362C15.2573 11.7056 15.4419 11.7229 15.6005 11.6882L18.1328 11.6467C18.3833 11.6467 18.5782 11.603 18.7165 11.5164C18.855 11.4296 18.9373 11.334 18.9638 11.23C18.9903 11.1259 18.9917 11.0078 18.9689 10.8758C18.9454 10.7441 18.9223 10.652 18.8993 10.6Z" fill="#BEBEBE"/>
</svg>

<svg width="19" height="12" fill="none" xmlns="http://www.w3.org/2000/svg"><path d="M18.9 10.6a1.402 1.402 0 00-.065-.13c-.33-.625-.96-1.392-1.89-2.302l-.02-.02-.01-.01-.009-.011h-.01c-.422-.424-.69-.708-.801-.854-.205-.278-.25-.559-.139-.844.08-.215.376-.67.89-1.364.27-.368.485-.663.643-.885 1.141-1.597 1.636-2.617 1.484-3.061l-.059-.104c-.04-.063-.141-.12-.306-.172-.165-.052-.376-.06-.633-.026l-2.85.02a.352.352 0 00-.197.006l-.129.031-.05.026-.039.032a.45.45 0 00-.109.109.727.727 0 00-.099.182 17.37 17.37 0 01-1.058 2.343c-.244.43-.468.804-.673 1.12a5.357 5.357 0 01-.514.697c-.139.15-.264.269-.376.36-.112.09-.198.128-.257.114a6.937 6.937 0 01-.169-.042.68.68 0 01-.222-.255 1.187 1.187 0 01-.114-.406 4.726 4.726 0 01-.034-.422 9.238 9.238 0 01.004-.5c.007-.215.01-.36.01-.437 0-.264.005-.55.015-.86l.025-.733c.007-.18.01-.372.01-.573 0-.201-.012-.36-.035-.474a1.692 1.692 0 00-.103-.333.555.555 0 00-.203-.25c-.09-.059-.2-.106-.332-.14-.35-.084-.794-.129-1.335-.136-1.227-.014-2.015.07-2.365.25a1.34 1.34 0 00-.375.312c-.12.153-.136.237-.05.25.396.063.676.212.84.448l.06.125c.046.09.093.25.139.48.046.228.076.482.089.76.033.506.033.94 0 1.3-.033.362-.064.643-.094.844a1.756 1.756 0 01-.253.719.175.175 0 01-.049.052.708.708 0 01-.267.052c-.092 0-.204-.049-.336-.146a2.424 2.424 0 01-.41-.4 5.366 5.366 0 01-.48-.714 12.671 12.671 0 01-.555-1.083l-.158-.302a26.525 26.525 0 01-.405-.849c-.172-.371-.324-.73-.456-1.078A.684.684 0 003.78.983L3.73.952a1.01 1.01 0 00-.386-.156l-2.71.02c-.277 0-.465.066-.564.198l-.04.063a.352.352 0 00-.03.167c0 .076.02.17.06.28a35.19 35.19 0 001.29 2.833c.465.91.87 1.642 1.212 2.197a26 26 0 001.049 1.572c.356.493.592.81.707.948.115.139.206.243.272.312l.247.25c.159.167.391.367.698.599.307.233.646.462 1.019.688.372.225.806.409 1.3.551.495.143.977.2 1.445.172h1.138c.23-.02.405-.097.524-.229l.04-.052a.714.714 0 00.074-.193 1.11 1.11 0 00.034-.286 3.613 3.613 0 01.064-.807c.05-.24.106-.42.169-.541a1.33 1.33 0 01.38-.458.631.631 0 01.08-.037c.158-.055.344-.002.559.162.214.163.415.364.603.604s.414.508.678.807c.264.298.494.52.692.666l.198.125c.132.083.304.16.515.23.21.069.395.086.553.051l2.533-.041c.25 0 .445-.044.584-.13.138-.087.22-.183.247-.287a.848.848 0 00.005-.354 1.363 1.363 0 00-.07-.276z" fill="#BEBEBE"/></svg>
